Simply-Black-Circles/scalable/apps/klines.svg

<?xml version="1.0" encoding="UTF-8" standalone="no"?><svg xmlns:dc="http://purl.org/dc/elements/1.1/" xmlns:cc="http://creativecommons.org/ns#" xmlns:rdf="http://www.w3.org/1999/02/22-rdf-syntax-ns#" xmlns="http://www.w3.org/2000/svg" width="48" height="48" viewBox="0 0 12.7 12.7"><metadata><rdf:RDF><cc:Work><dc:format>image/svg+xml</dc:format><dc:type rdf:resource="http://purl.org/dc/dcmitype/StillImage"/><dc:title/></cc:Work></rdf:RDF></metadata><path d="M6.34.07a6.29 6.29 0 0 0-6.29 6.3 6.29 6.29 0 0 0 6.3 6.28 6.29 6.29 0 0 0 6.28-6.29A6.29 6.29 0 0 0 6.34.07zm-.01.94a5.4 5.4 0 0 1 5.4 5.4 5.4 5.4 0 0 1-5.4 5.41 5.4 5.4 0 0 1-5.41-5.4A5.4 5.4 0 0 1 6.32 1zM3.7 2.65A1.06 1.06 0 0 0 2.65 3.7 1.06 1.06 0 0 0 3.7 4.76 1.06 1.06 0 0 0 4.76 3.7 1.06 1.06 0 0 0 3.7 2.65zm2.65 0A1.06 1.06 0 0 0 5.29 3.7a1.06 1.06 0 0 0 1.06 1.06A1.06 1.06 0 0 0 7.41 3.7a1.06 1.06 0 0 0-1.06-1.05zm2.65 0A1.06 1.06 0 0 0 7.94 3.7 1.06 1.06 0 0 0 9 4.76a1.06 1.06 0 0 0 1.05-1.06A1.06 1.06 0 0 0 9 2.65zm-5.3.3a.75.75 0 0 1 .75.75.75.75 0 0 1-.75.75.75.75 0 0 1-.74-.75.75.75 0 0 1 .74-.74zm2.65 0a.75.75 0 0 1 .75.75.75.75 0 0 1-.75.75.75.75 0 0 1-.75-.75.75.75 0 0 1 .75-.74zM3.7 5.3a1.06 1.06 0 0 0-1.05 1.06A1.06 1.06 0 0 0 3.7 7.41a1.06 1.06 0 0 0 1.06-1.06A1.06 1.06 0 0 0 3.7 5.29zm2.65 0a1.06 1.06 0 0 0-1.06 1.06 1.06 1.06 0 0 0 1.06 1.06 1.06 1.06 0 0 0 1.06-1.06 1.06 1.06 0 0 0-1.06-1.06zM9 5.3a1.06 1.06 0 0 0-1.06 1.06A1.06 1.06 0 0 0 9 7.41a1.06 1.06 0 0 0 1.05-1.06A1.06 1.06 0 0 0 9 5.29zm-5.3.31a.75.75 0 0 1 .75.75.75.75 0 0 1-.75.75.75.75 0 0 1-.74-.75.75.75 0 0 1 .74-.75zm5.3 0a.75.75 0 0 1 .74.75.75.75 0 0 1-.74.75.75.75 0 0 1-.75-.75A.75.75 0 0 1 9 5.6zM3.7 7.94A1.06 1.06 0 0 0 2.65 9a1.06 1.06 0 0 0 1.05 1.05A1.06 1.06 0 0 0 4.76 9 1.06 1.06 0 0 0 3.7 7.94zm2.65 0A1.06 1.06 0 0 0 5.29 9a1.06 1.06 0 0 0 1.06 1.05A1.06 1.06 0 0 0 7.41 9a1.06 1.06 0 0 0-1.06-1.06zm2.65 0A1.06 1.06 0 0 0 7.94 9 1.06 1.06 0 0 0 9 10.05 1.06 1.06 0 0 0 10.05 9 1.06 1.06 0 0 0 9 7.94zm-2.65.31A.75.75 0 0 1 7.1 9a.75.75 0 0 1-.75.74A.75.75 0 0 1 5.6 9a.75.75 0 0 1 .75-.75zm2.65 0a.75.75 0 0 1 .74.75.75.75 0 0 1-.74.74.75.75 0 0 1-.75-.74.75.75 0 0 1 .75-.75z" fill="#1a1a1a"/></svg>

<?xml version="1.0" encoding="UTF-8" standalone="no"?>
<svg
   xmlns:dc="http://purl.org/dc/elements/1.1/"
   xmlns:cc="http://creativecommons.org/ns#"
   xmlns:rdf="http://www.w3.org/1999/02/22-rdf-syntax-ns#"
   xmlns:svg="http://www.w3.org/2000/svg"
   xmlns="http://www.w3.org/2000/svg"
   xmlns:sodipodi="http://sodipodi.sourceforge.net/DTD/sodipodi-0.dtd"
   xmlns:inkscape="http://www.inkscape.org/namespaces/inkscape"
   width="48"
   height="48"
   viewBox="0 0 12.7 12.7"
   version="1.1"
   id="svg6"
   sodipodi:docname="klines.svg"
   inkscape:version="0.92.4 (5da689c313, 2019-01-14)">
  <defs
     id="defs10" />
  <sodipodi:namedview
     pagecolor="#ffffff"
     bordercolor="#666666"
     borderopacity="1"
     objecttolerance="10"
     gridtolerance="10"
     guidetolerance="10"
     inkscape:pageopacity="0"
     inkscape:pageshadow="2"
     inkscape:window-width="1087"
     inkscape:window-height="480"
     id="namedview8"
     showgrid="false"
     inkscape:zoom="4.9166667"
     inkscape:cx="2.1355932"
     inkscape:cy="24"
     inkscape:window-x="0"
     inkscape:window-y="25"
     inkscape:window-maximized="0"
     inkscape:current-layer="svg6" />
  <metadata
     id="metadata2">
    <rdf:RDF>
      <cc:Work>
        <dc:format>image/svg+xml</dc:format>
        <dc:type
           rdf:resource="http://purl.org/dc/dcmitype/StillImage" />
        <dc:title></dc:title>
      </cc:Work>
    </rdf:RDF>
  </metadata>
  <path
     d="M 6.34,0.07 A 6.29,6.29 0 0 0 0.05,6.37 6.29,6.29 0 0 0 6.35,12.65 6.29,6.29 0 0 0 12.63,6.36 6.29,6.29 0 0 0 6.34,0.07 Z M 6.33,1.01 a 5.4,5.4 0 0 1 5.4,5.4 5.4,5.4 0 0 1 -5.4,5.41 A 5.4,5.4 0 0 1 0.92,6.42 5.4,5.4 0 0 1 6.32,1 Z M 3.7,2.65 A 1.06,1.06 0 0 0 2.65,3.7 1.06,1.06 0 0 0 3.7,4.76 1.06,1.06 0 0 0 4.76,3.7 1.06,1.06 0 0 0 3.7,2.65 Z m 2.65,0 A 1.06,1.06 0 0 0 5.29,3.7 1.06,1.06 0 0 0 6.35,4.76 1.06,1.06 0 0 0 7.41,3.7 1.06,1.06 0 0 0 6.35,2.65 Z M 9,2.65 A 1.06,1.06 0 0 0 7.94,3.7 1.06,1.06 0 0 0 9,4.76 1.06,1.06 0 0 0 10.05,3.7 1.06,1.06 0 0 0 9,2.65 Z M 3.7,2.95 A 0.75,0.75 0 0 1 4.45,3.7 0.75,0.75 0 0 1 3.7,4.45 0.75,0.75 0 0 1 2.96,3.7 0.75,0.75 0 0 1 3.7,2.96 Z m 2.65,0 A 0.75,0.75 0 0 1 7.1,3.7 0.75,0.75 0 0 1 6.35,4.45 0.75,0.75 0 0 1 5.6,3.7 0.75,0.75 0 0 1 6.35,2.96 Z M 3.7,5.3 A 1.06,1.06 0 0 0 2.65,6.36 1.06,1.06 0 0 0 3.7,7.41 1.06,1.06 0 0 0 4.76,6.35 1.06,1.06 0 0 0 3.7,5.29 Z m 2.65,0 A 1.06,1.06 0 0 0 5.29,6.36 1.06,1.06 0 0 0 6.35,7.42 1.06,1.06 0 0 0 7.41,6.36 1.06,1.06 0 0 0 6.35,5.3 Z M 9,5.3 A 1.06,1.06 0 0 0 7.94,6.36 1.06,1.06 0 0 0 9,7.41 1.06,1.06 0 0 0 10.05,6.35 1.06,1.06 0 0 0 9,5.29 Z M 3.7,5.61 A 0.75,0.75 0 0 1 4.45,6.36 0.75,0.75 0 0 1 3.7,7.11 0.75,0.75 0 0 1 2.96,6.36 0.75,0.75 0 0 1 3.7,5.61 Z m 5.3,0 A 0.75,0.75 0 0 1 9.74,6.36 0.75,0.75 0 0 1 9,7.11 0.75,0.75 0 0 1 8.25,6.36 0.75,0.75 0 0 1 9,5.6 Z M 3.7,7.94 A 1.06,1.06 0 0 0 2.65,9 1.06,1.06 0 0 0 3.7,10.05 1.06,1.06 0 0 0 4.76,9 1.06,1.06 0 0 0 3.7,7.94 Z m 2.65,0 A 1.06,1.06 0 0 0 5.29,9 1.06,1.06 0 0 0 6.35,10.05 1.06,1.06 0 0 0 7.41,9 1.06,1.06 0 0 0 6.35,7.94 Z M 9,7.94 A 1.06,1.06 0 0 0 7.94,9 1.06,1.06 0 0 0 9,10.05 1.06,1.06 0 0 0 10.05,9 1.06,1.06 0 0 0 9,7.94 Z M 6.35,8.25 A 0.75,0.75 0 0 1 7.1,9 0.75,0.75 0 0 1 6.35,9.74 0.75,0.75 0 0 1 5.6,9 0.75,0.75 0 0 1 6.35,8.25 Z M 9,8.25 A 0.75,0.75 0 0 1 9.74,9 0.75,0.75 0 0 1 9,9.74 0.75,0.75 0 0 1 8.25,9 0.75,0.75 0 0 1 9,8.25 Z"
     id="path4"
     inkscape:connector-curvature="0"
     style="fill:#1a1a1a" />
</svg>
